pix/icon.svg

<svg xmlns="http://www.w3.org/2000/svg" width="14" height="14" viewBox="-1.5 -2 20 20">
<defs>
	<clipPath id="a"><path d="M0 0h16v16H0z"/></clipPath>
</defs>
	<g clip-path="url(#a)"><path d="M9 1h6v3H9V1zM8 12h3v3H8v-3zM1 6h7v3H1V6z"/><path d="M1 1h2v3H1V1zm4 0h2v3H5V1zM1 12h5v3H1v-3zm12 0h2v3h-2v-3zm-3-6h5v3h-5V6z" fill="#8E8E8E"/></g>
</svg>

<?xml version="1.0" encoding="UTF-8" standalone="no"?>
<svg
   style="isolation:isolate"
   width="16"
   height="16"
   preserveAspectRatio="xMinYMid meet"
   version="1.1"
   id="svg186"
   sodipodi:docname="icon.svg"
   inkscape:version="1.2.2 (732a01da63, 2022-12-09)"
   xmlns:inkscape="http://www.inkscape.org/namespaces/inkscape"
   xmlns:sodipodi="http://sodipodi.sourceforge.net/DTD/sodipodi-0.dtd"
   xmlns="http://www.w3.org/2000/svg"
   xmlns:svg="http://www.w3.org/2000/svg">
  <sodipodi:namedview
     id="namedview188"
     pagecolor="#ffffff"
     bordercolor="#000000"
     borderopacity="0.25"
     inkscape:showpageshadow="2"
     inkscape:pageopacity="0.0"
     inkscape:pagecheckerboard="0"
     inkscape:deskcolor="#d1d1d1"
     showgrid="false"
     inkscape:zoom="14.75"
     inkscape:cx="-3.0847458"
     inkscape:cy="8.8813559"
     inkscape:window-width="1255"
     inkscape:window-height="1107"
     inkscape:window-x="650"
     inkscape:window-y="7"
     inkscape:window-maximized="0"
     inkscape:current-layer="svg186" />
  <defs
     id="defs178">
    <clipPath
       id="a">
      <path
         d="M0 0h16v16H0z"
         id="path175" />
    </clipPath>
  </defs>
  <g
     clip-path="url(#a)"
     id="g184"
     transform="matrix(0.7,0,0,0.7,2.4016949,2.4694915)">
    <path
       d="m 9,1 h 6 V 4 H 9 Z M 8,12 h 3 v 3 H 8 Z M 1,6 H 8 V 9 H 1 Z"
       id="path180" />
    <path
       d="M 1,1 H 3 V 4 H 1 Z M 5,1 H 7 V 4 H 5 Z M 1,12 h 5 v 3 H 1 Z m 12,0 h 2 v 3 H 13 Z M 10,6 h 5 v 3 h -5 z"
       fill="#ff0000"
       id="path182" />
  </g>
</svg>
